X: 1
T: Rambles Of Spring, The
M: 4/4
L: 1/8
R: reel
K: Gmaj
Bc|d2 BA G2 AG|EG E/D/C D2 BB|BG G/G/G GGFG|A6 dd|
ddBA G2 AG|EG E/D/C D2 BB|BBcB AAGF|G6:|
